raw/symbols/fil.svg

<svg width="42" height="42" viewBox="0 0 42 42" fill="none" xmlns="http://www.w3.org/2000/svg">
<circle cx="21" cy="21" r="21" fill="#0090FF"/>
<path fill-rule="evenodd" clip-rule="evenodd" d="M21.8999 17.5998L21.2999 20.7998L26.9999 21.5998L26.5999 23.0998L20.9999 22.2998C20.5999 23.5998 20.3999 24.9998 19.8999 26.1998C19.3999 27.5998 18.8999 28.9998 18.2999 30.2998C17.4999 31.9998 16.0999 33.1998 14.1999 33.4998C13.0999 33.6998 11.8999 33.5998 10.9999 32.8998C10.6999 32.6998 10.3999 32.2998 10.3999 31.9998C10.3999 31.5998 10.5999 31.0998 10.8999 30.8998C11.0999 30.7998 11.5999 30.8998 11.8999 30.9998C12.1999 31.2998 12.4999 31.6998 12.6999 32.0998C13.2999 32.8998 14.0999 32.9998 14.8999 32.3998C15.7999 31.5998 16.2999 30.4998 16.5999 29.3998C17.1999 26.9998 17.7999 24.6998 18.2999 22.2998V21.8998L12.9999 21.0998L13.1999 19.5998L18.6999 20.3998L19.3999 17.2998L13.6999 16.3998L13.8999 14.7998L19.7999 15.5998C19.9999 14.9998 20.0999 14.4998 20.2999 13.9998C20.7999 12.1998 21.2999 10.3998 22.4999 8.79983C23.6999 7.19983 25.0999 6.19983 27.1999 6.29983C28.0999 6.29983 28.9999 6.59983 29.5999 7.29983C29.6999 7.39983 29.8999 7.59983 29.8999 7.79983C29.8999 8.19983 29.8999 8.69983 29.5999 8.99983C29.1999 9.29983 28.6999 9.19983 28.2999 8.79983C27.9999 8.49983 27.7999 8.19983 27.4999 7.89983C26.8999 7.09983 25.9999 6.99983 25.2999 7.69983C24.7999 8.19983 24.2999 8.89983 23.9999 9.59983C23.2999 11.6998 22.7999 13.8998 22.0999 16.0998L27.5999 16.8998L27.1999 18.3998L21.8999 17.5998Z" fill="white"/>
</svg>

<svg xmlns="http://www.w3.org/2000/svg" width="42" height="42" fill="none"><circle cx="21" cy="21" r="21" fill="#0090FF"/><path fill="#fff" fill-rule="evenodd" d="m21.9 17.6-.6 3.2 5.7.8-.4 1.5-5.6-.8c-.4 1.3-.6 2.7-1.1 3.9-.5 1.4-1 2.8-1.6 4.1-.8 1.7-2.2 2.9-4.1 3.2-1.1.2-2.3.1-3.2-.6-.3-.2-.6-.6-.6-.9 0-.4.2-.9.5-1.1.2-.1.7 0 1 .1.3.3.6.7.8 1.1.6.8 1.4.9 2.2.3.9-.8 1.4-1.9 1.7-3 .6-2.4 1.2-4.7 1.7-7.1v-.4l-5.3-.8.2-1.5 5.5.8.7-3.1-5.7-.9.2-1.6 5.9.8c.2-.6.3-1.1.5-1.6.5-1.8 1-3.6 2.2-5.2 1.2-1.6 2.6-2.6 4.7-2.5.9 0 1.8.3 2.4 1 .1.1.3.3.3.5 0 .4 0 .9-.3 1.2-.4.3-.9.2-1.3-.2-.3-.3-.5-.6-.8-.9-.6-.8-1.5-.9-2.2-.2-.5.5-1 1.2-1.3 1.9-.7 2.1-1.2 4.3-1.9 6.5l5.5.8-.4 1.5-5.3-.8Z" clip-rule="evenodd"/></svg>
